svg/bishop.svg

<?xml version="1.0" encoding="UTF-8" standalone="no"?>
<svg
   width="100"
   height="100"
   viewBox="-50 -60 381.316 511.653"
   version="1.1"
   id="svg22"
   sodipodi:docname="bishop.svg"
   inkscape:version="1.2.2 (b0a8486541, 2022-12-01)"
   xmlns:inkscape="http://www.inkscape.org/namespaces/inkscape"
   xmlns:sodipodi="http://sodipodi.sourceforge.net/DTD/sodipodi-0.dtd"
   xmlns="http://www.w3.org/2000/svg"
   xmlns:svg="http://www.w3.org/2000/svg">
  <sodipodi:namedview
     id="namedview24"
     pagecolor="#505050"
     bordercolor="#ffffff"
     borderopacity="1"
     inkscape:showpageshadow="0"
     inkscape:pageopacity="0"
     inkscape:pagecheckerboard="1"
     inkscape:deskcolor="#505050"
     showgrid="false"
     inkscape:zoom="8.37"
     inkscape:cx="48.74552"
     inkscape:cy="50.059737"
     inkscape:window-width="948"
     inkscape:window-height="995"
     inkscape:window-x="964"
     inkscape:window-y="40"
     inkscape:window-maximized="0"
     inkscape:current-layer="svg22" />
  <defs
     id="defs5">
    <clipPath
       id="clip1">
      <path
         d="M 0 70 L 291.316406 70 L 291.316406 431.652344 L 0 431.652344 Z M 0 70 "
         id="path2" />
    </clipPath>
  </defs>
  <path
     style="fill:#ffbbff;fill-opacity:1;fill-rule:nonzero;stroke:none"
     d="m 180.35937,29.832031 c 0,19.238281 -15.59375,34.832031 -34.83203,34.832031 -19.23828,0 -34.83203,-15.59375 -34.83203,-34.832031 C 110.69531,10.59375 126.28906,-5 145.52734,-5 c 19.23828,0 34.83203,15.59375 34.83203,34.832031"
     id="path7" />
  <path
     style="fill:none;stroke:#000000;stroke-width:30;stroke-linecap:butt;stroke-linejoin:round;stroke-miterlimit:10;stroke-opacity:1"
     d="m 180.35937,29.832031 c 0,19.238281 -15.59375,34.832031 -34.83203,34.832031 -19.23828,0 -34.83203,-15.59375 -34.83203,-34.832031 C 110.69531,10.59375 126.28906,-5 145.52734,-5 c 19.23828,0 34.83203,15.59375 34.83203,34.832031 z m 0,0"
     id="path9" />
  <path
     style="fill:#ffffff;fill-opacity:1;fill-rule:nonzero;stroke:none"
     d="m 248.14844,149.85937 c -56.52735,15.36329 -94.26563,111.42579 -94.26563,111.42579 0,0 4.67578,-86.51954 44.84766,-160.10157 -27.89453,-22.265621 -52.6211,-36.042965 -52.6211,-36.042965 0,0 -132.011714,72.128905 -131.105464,154.695315 0.910156,82.5664 66.234375,146.98437 58.070313,164.22656 -8.167969,17.23828 154.242191,16.33203 146.074221,0 -8.16407,-16.33203 56.2539,-82.56641 57.16406,-164.22656 0.27344,-24.71094 -11.55078,-48.62891 -28.16406,-69.97657"
     id="path11" />
  <path
     style="fill:#ffbbff;fill-opacity:1;fill-rule:nonzero;stroke:none"
     d="M 150.31641,71.773438 C 99.816406,158.77344 87.816406,197.77344 87.816406,224.77344 c 0,56.92187 51.000004,148 26.500004,162 H 78.316406 l -45,-90 -18,-63 9,-54 36,-45 z m 0,0"
     id="path13" />
  <g
     clip-path="url(#clip1)"
     clip-rule="nonzero"
     id="g17"
     transform="translate(0,-20)">
    <path
       style="fill:#000000;fill-opacity:1;fill-rule:nonzero;stroke:none"
       d="m 88.683594,397.54687 c 9.394531,2.0625 28.707036,4.10547 55.781246,4.10547 0.57422,0 1.14844,0 1.72657,0 27.86328,-0.0898 47.76562,-2.2539 57.40625,-4.375 1.28125,-10.32812 8.08984,-22.59765 17.41796,-39.40234 16.78516,-30.25 39.78125,-71.67969 40.29688,-118.20703 0.17969,-16.07031 -6.0625,-33.45313 -18.56641,-51.78516 -36.14843,17.58594 -65.89843,76.05469 -74.90625,98.89844 -2.69922,6.84375 -9.97265,10.73047 -17.15234,9.15625 -7.19141,-1.57031 -12.17969,-8.11328 -11.78516,-15.46094 0.1875,-3.48828 4.83985,-82.3125 40.75,-155.08984 -13.92187,-10.44531 -26.23047,-18.34375 -33.60547,-22.85938 -11.27343,6.78907 -34.03124,21.33594 -56.42187,40.69141 -27.421875,23.71094 -60.027344,59.69141 -59.621094,96.45312 0.515625,46.94141 23.78125,87.90235 40.769532,117.8125 9.722656,17.11719 16.753906,29.4961 17.910156,40.0625 m 55.890626,34.10547 c -16.4336,0 -32.31641,-0.75 -44.925782,-2.1289 C 77.027344,427.05078 69.535156,423.24609 65.195312,419.84766 58.785156,414.83203 56.3125,407.03125 58.640625,399.83984 57.511719,394.87891 50.4375,382.42578 44.6875,372.30078 27.132812,341.39453 0.605469,294.69141 0.00390625,240 -0.421875,201.13281 23.269531,160.81641 70.421875,120.16406 104.13281,91.105469 137.51562,72.742188 138.91797,71.976562 c 4.51953,-2.472656 9.99609,-2.449218 14.49609,0.05859 1.05078,0.589844 26.13281,14.644532 54.67578,37.425788 5.69141,4.54297 7.29688,12.51953 3.80469,18.91406 -12.90234,23.63281 -22.00391,48.86328 -28.39453,71.89844 19.26953,-24.09375 39.61719,-39.15625 60.71484,-44.89063 5.83203,-1.58594 12.05469,0.48828 15.77344,5.26563 21.06641,27.07031 31.60547,53.76953 31.32031,79.35547 -0.60156,54.11328 -26.7539,101.24218 -44.0625,132.42968 -5.58593,10.06641 -12.45312,22.4336 -13.65234,27.42578 2.25391,6.9336 -0.0234,14.47657 -6.08984,19.4375 -4.19141,3.42188 -11.50782,7.27735 -34.03907,9.89454 -13.08984,1.51562 -29.71093,2.39062 -46.80468,2.45703 -0.69532,0.004 -1.39063,0.004 -2.08594,0.004"
       id="path15" />
  </g>
  <path
     style="fill:none;stroke:#000000;stroke-width:30;stroke-linecap:round;stroke-linejoin:round;stroke-miterlimit:10;stroke-opacity:1"
     d="m 47.316406,324.27344 c 15.582032,24.33593 181.500004,28.83984 198.000004,0"
     id="path19" />
</svg>

<?xml version="1.0" encoding="UTF-8"?>
<svg xmlns="http://www.w3.org/2000/svg" xmlns:xlink="http://www.w3.org/1999/xlink" width="100" height="100" viewBox="-50 -60 381.316 511.653" version="1.1">
<defs>
<clipPath id="clip1">
  <path d="M 0 70 L 291.316406 70 L 291.316406 431.652344 L 0 431.652344 Z M 0 70 "/>
</clipPath>
</defs>
<g id="surface1" transform="translate(0 -20)">
<path style=" stroke:none;fill-rule:nonzero;fill:rgb(100%,100%,100%);fill-opacity:1;" d="M 180.359375 49.832031 C 180.359375 69.070312 164.765625 84.664062 145.527344 84.664062 C 126.289062 84.664062 110.695312 69.070312 110.695312 49.832031 C 110.695312 30.59375 126.289062 15 145.527344 15 C 164.765625 15 180.359375 30.59375 180.359375 49.832031 "/>
<path style="fill:none;stroke-width:30;stroke-linecap:butt;stroke-linejoin:round;stroke:rgb(0%,0%,0%);stroke-opacity:1;stroke-miterlimit:10;" d="M -0.000825 0.00066875 C -0.000825 -19.237612 -15.594575 -34.831362 -34.832856 -34.831362 C -54.071138 -34.831362 -69.664888 -19.237612 -69.664888 0.00066875 C -69.664888 19.23895 -54.071138 34.8327 -34.832856 34.8327 C -15.594575 34.8327 -0.000825 19.23895 -0.000825 0.00066875 Z M -0.000825 0.00066875 " transform="matrix(1,0,0,-1,180.3602,49.8327)"/>
<path style=" stroke:none;fill-rule:nonzero;fill:rgb(80.000305%,80.000305%,80.000305%);fill-opacity:1;" d="M 248.148438 169.859375 C 191.621094 185.222656 153.882812 281.285156 153.882812 281.285156 C 153.882812 281.285156 158.558594 194.765625 198.730469 121.183594 C 170.835938 98.917969 146.109375 85.140625 146.109375 85.140625 C 146.109375 85.140625 14.097656 157.269531 15.003906 239.835938 C 15.914062 322.402344 81.238281 386.820312 73.074219 404.0625 C 64.90625 421.300781 227.316406 420.394531 219.148438 404.0625 C 210.984375 387.730469 275.402344 321.496094 276.3125 239.835938 C 276.585938 215.125 264.761719 191.207031 248.148438 169.859375 "/>
<path style=" stroke:none;fill-rule:nonzero;fill:rgb(100%,100%,100%);fill-opacity:1;" d="M 150.316406 91.773438 C 99.816406 178.773438 87.816406 217.773438 87.816406 244.773438 C 87.816406 301.695312 138.816406 392.773438 114.316406 406.773438 L 78.316406 406.773438 L 33.316406 316.773438 L 15.316406 253.773438 L 24.316406 199.773438 L 60.316406 154.773438 Z M 150.316406 91.773438 "/>
<g clip-path="url(#clip1)" clip-rule="nonzero">
<path style=" stroke:none;fill-rule:nonzero;fill:rgb(0%,0%,0%);fill-opacity:1;" d="M 88.683594 397.546875 C 98.078125 399.609375 117.390625 401.652344 144.464844 401.652344 C 145.039062 401.652344 145.613281 401.652344 146.191406 401.652344 C 174.054688 401.5625 193.957031 399.398438 203.597656 397.277344 C 204.878906 386.949219 211.6875 374.679688 221.015625 357.875 C 237.800781 327.625 260.796875 286.195312 261.3125 239.667969 C 261.492188 223.597656 255.25 206.214844 242.746094 187.882812 C 206.597656 205.46875 176.847656 263.9375 167.839844 286.78125 C 165.140625 293.625 157.867188 297.511719 150.6875 295.9375 C 143.496094 294.367188 138.507812 287.824219 138.902344 280.476562 C 139.089844 276.988281 143.742188 198.164062 179.652344 125.386719 C 165.730469 114.941406 153.421875 107.042969 146.046875 102.527344 C 134.773438 109.316406 112.015625 123.863281 89.625 143.21875 C 62.203125 166.929688 29.597656 202.910156 30.003906 239.671875 C 30.519531 286.613281 53.785156 327.574219 70.773438 357.484375 C 80.496094 374.601562 87.527344 386.980469 88.683594 397.546875 M 144.574219 431.652344 C 128.140625 431.652344 112.257812 430.902344 99.648438 429.523438 C 77.027344 427.050781 69.535156 423.246094 65.195312 419.847656 C 58.785156 414.832031 56.3125 407.03125 58.640625 399.839844 C 57.511719 394.878906 50.4375 382.425781 44.6875 372.300781 C 27.132812 341.394531 0.605469 294.691406 0.00390625 240 C -0.421875 201.132812 23.269531 160.816406 70.421875 120.164062 C 104.132812 91.105469 137.515625 72.742188 138.917969 71.976562 C 143.4375 69.503906 148.914062 69.527344 153.414062 72.035156 C 154.464844 72.625 179.546875 86.679688 208.089844 109.460938 C 213.78125 114.003906 215.386719 121.980469 211.894531 128.375 C 198.992188 152.007812 189.890625 177.238281 183.5 200.273438 C 202.769531 176.179688 223.117188 161.117188 244.214844 155.382812 C 250.046875 153.796875 256.269531 155.871094 259.988281 160.648438 C 281.054688 187.71875 291.59375 214.417969 291.308594 240.003906 C 290.707031 294.117188 264.554688 341.246094 247.246094 372.433594 C 241.660156 382.5 234.792969 394.867188 233.59375 399.859375 C 235.847656 406.792969 233.570312 414.335938 227.503906 419.296875 C 223.3125 422.71875 215.996094 426.574219 193.464844 429.191406 C 180.375 430.707031 163.753906 431.582031 146.660156 431.648438 C 145.964844 431.652344 145.269531 431.652344 144.574219 431.652344 "/>
</g>
<path style="fill:none;stroke-width:30;stroke-linecap:round;stroke-linejoin:round;stroke:rgb(0%,0%,0%);stroke-opacity:1;stroke-miterlimit:10;" d="M 0.00020625 0.0006625 C 15.582238 -24.335275 181.500206 -28.839181 198.000206 0.0006625 " transform="matrix(1,0,0,-1,47.3162,344.2741)"/>
</g>
</svg>
